X:1
T:Rosmarin
T:Aus des Knaben Wunderhorn
T:Johannes Brahms, Op. 62 (veröffentlicht 1874)     
T:J. B. 116 Scritto con MuseScore, un software libero e gratuito: http://musescore.org/it 
T:J. B. 116 Scritto con MuseScore, un software libero e gratuito: http://musescore.org/it 
Z:J. B. 116
Z:Scritto con MuseScore, un software libero e gratuito: http://musescore.org/it
%%score [ 1 2 3 4 ]
L:1/8
Q:1/4=70
M:3/4
K:Bb
V:1 treble nm="Sopran"
V:2 treble nm="Alt"
V:3 treble-8 nm="Tenor"
V:4 bass nm="Baẞ"
V:1
!p!"^Gehend" G | B A d3 G | B A d3 g | e d c3 e | d ^F G2 z"^dolce" d ||[M:4/4] c B c d ^F2 G2 | %6
w: 1.~Es|wollt die Jung\- frau|früh auf\- stehn, wollt|in des Va\- ters|Gar\- ten gehn. 1.~Rot|1.~Rös\- lein wollt sie bre\- chen|
w: ||||* * * 2.~Ihr|2.~Rös\- lein rot, ich brech euch|
 A2 z e d c d e |!mf!!<(! (B2 c2)!f! d2 z!>(! g!<)!!>)! |!mp! fe dc!p! B2 A2 | G2 z2 z2 z :| %10
w: ab, da\- von wollt sie sich|ma- * chen ein|Kränze\- * * * lein wohl|schön.|
w: ab, da\- von will ich mir|win- * den, ein|Kränze\- * * * lein so|schön."|
V:2
!p! D | G ^F G3 D | G ^F G3 G | B A G3 G | G D D2 z"^dolce" B ||[M:4/4] A G A B D2 =E2 | %6
w: 2.~Es|sollt ihr Hoch\- zeits\-|kränz\- lein sein: "Dem|fei\- nen Knab, dem|Kna\- ben mein. 3.~"So|3.~bist du, mein Ge\- treu\- er|
w: ||||* * * 4.~das|4.~nimm du, mein Ge\- treu\- er|
 ^F2 z c B A B c |!<(! (G2 A2) B2 z!>(! G!<)!!>)! | G2 G2!p! G2 ^F2 | G2 z2 z2 z :| %10
w: hin! Kein Rös\- lein ist zu|fin- * den, kein|Krän\- ze\- lein so|schön."|
w: hin! Lieg bei dir un\- ter|Lin- * den, mein|To\- ten\- krän\- lein|schön."|
V:3
!p! B | d c B3 B | d c B3 B | B d e3 G | B c B2 z2 ||[M:4/4] z d c B c d B d | (d2 A2) z e d c | %7
w: 3.~Sie|ging im Grü\- nen|her und hin, statt|Rös\- lein fand sie|Ros\- ma\- rin:|1.~Rot Rös\- lein wollt sie bre\- chen|ab,\_ * da\- von wollt|
w: |||||2.Ihr~ Rös\- lein rot, ich brech euch|ab,\_ * da\- von will|
!<(! d g ef d2!>(! d2!<)!!>)! | G2 c2!p! d3 c | B2 z2 z2 z :| %10
w: sie sich ma * chen ein|Krän\- ze\- lein so|schön.|
w: ich mir win- * den, ein|Krän\- ze\- lein so|schön."|
V:4
!p! G, | G, G, G,3 G, | G, G, G,3 E, | G, F, E,3 C, | D, D, G,2 z2 || %5
w: 4.~Sie|ging im Gar\- ten|her und hin, statt|Rös\- lein brach sie|Ros\- ma\- rin:|
w: |||||
[M:4/4] z B, A, G, A, D, G, B,, | (D,2 ^F,2) z C B, A, |!<(! B, G, CF, B,2!>(! B,,2!<)!!>)! | %8
w: 3.~"So bist du, mein Ge\- treu\- er|hin! * Kein Rös\- lein|ist zu fin- * den kein|
w: 4.~"Das nimm du, mein Ge\- treu\- er,|hin! * Lieg bei dir|un\- ter Lin- * den, mein|
 C,2 E,2!p! D,2 D,2 | G,,2 z2 z2 z :| %10
w: Krän\- ze\- lein so|schön."|
w: To\- ten\- kränz\- leinẞ|schön."|

